app/images/social__icon--instagram.svg

<?xml version="1.0" encoding="UTF-8"?>
<svg width="52px" height="54px" viewBox="0 0 52 54" version="1.1" xmlns="http://www.w3.org/2000/svg" xmlns:xlink="http://www.w3.org/1999/xlink">
    <!-- Generator: Sketch 56.3 (81716) - https://sketch.com -->
    <title>Group 10</title>
    <desc>Created with Sketch.</desc>
    <defs>
        <polygon id="path-1" points="0 0.745616667 51.7486667 0.745616667 51.7486667 53.897305 0 53.897305"></polygon>
    </defs>
    <g id="Welcome" stroke="none" stroke-width="1" fill="none" fill-rule="evenodd">
        <g id="v1-Homepage" transform="translate(-603.000000, -2708.000000)">
            <g id="Group-10" transform="translate(603.000000, 2708.000000)">
                <path d="M17,52 L17.003,52 L17,52 Z" id="Fill-1" fill="#D7202F"></path>
                <g id="Group-9">
                    <path d="M25.8752,39.4480625 C19.4272,39.4480625 14.1838667,34.0086542 14.1838667,27.3250542 C14.1838667,20.6414542 19.4272,15.1975542 25.8752,15.1975542 C32.3232,15.1975542 37.5665333,20.6414542 37.5665333,27.3250542 C37.5665333,34.0086542 32.3232,39.4480625 25.8752,39.4480625 M25.8752,11.3212458 C17.3645333,11.3212458 10.4355333,18.5034208 10.4355333,27.3250542 C10.4355333,36.1466875 17.3645333,43.3198792 25.8752,43.3198792 C34.3858667,43.3198792 41.3148667,36.1466875 41.3148667,27.3250542 C41.3148667,18.5034208 34.3858667,11.3212458 25.8752,11.3212458" id="Fill-2" fill="#FFFFFF"></path>
                    <g id="Group-6">
                        <mask id="mask-2" fill="white">
                            <use xlink:href="#path-1"></use>
                        </mask>
                        <g id="Clip-5"></g>
                        <path d="M47.9266667,43.036455 C47.9266667,46.8408967 44.941,49.935655 41.2706667,49.935655 L10.478,49.935655 C6.812,49.935655 3.822,46.8408967 3.822,43.036455 L3.822,11.6082633 C3.822,7.80382167 6.812,4.70906333 10.478,4.70906333 L41.2706667,4.70906333 C44.941,4.70906333 47.9266667,7.80382167 47.9266667,11.6082633 L47.9266667,43.036455 Z M41.2706667,0.742921667 L10.478,0.742921667 C4.69733333,0.742921667 0,5.61638 0,11.6082633 L0,43.036455 C0,49.0238467 4.69733333,53.897305 10.478,53.897305 L41.2706667,53.897305 C47.0513333,53.897305 51.753,49.0238467 51.753,43.036455 L51.753,11.6082633 C51.753,5.61638 47.0513333,0.742921667 41.2706667,0.742921667 L41.2706667,0.742921667 Z" id="Fill-4" fill="#FFFFFF" mask="url(#mask-2)"></path>
                    </g>
                    <path d="M41.5198333,9.49807833 C40.1678333,9.49807833 39.0845,10.63447 39.0845,12.0268867 C39.0845,13.4282867 40.1678333,14.5512033 41.5198333,14.5512033 C42.8631667,14.5512033 43.9595,13.4282867 43.9595,12.0268867 C43.9595,10.63447 42.8631667,9.49807833 41.5198333,9.49807833" id="Fill-7" fill="#FFFFFF"></path>
                </g>
            </g>
        </g>
    </g>
</svg>

<svg width="52" height="54" xmlns="http://www.w3.org/2000/svg" xmlns:xlink="http://www.w3.org/1999/xlink"><defs><path id="a" d="M0 .746h51.749v53.151H0z"/></defs><g fill="none" fill-rule="evenodd"><path d="M17 52h.003H17z" fill="#D7202F"/><path d="M25.875 39.448c-6.448 0-11.691-5.44-11.691-12.123 0-6.684 5.243-12.127 11.691-12.127s11.692 5.443 11.692 12.127c0 6.684-5.244 12.123-11.692 12.123m0-28.127c-8.51 0-15.44 7.182-15.44 16.004 0 8.822 6.93 15.995 15.44 15.995s15.44-7.173 15.44-15.995-6.93-16.004-15.44-16.004" fill="#FFF"/><g><mask id="b" fill="#fff"><use xlink:href="#a"/></mask><path d="M47.927 43.036c0 3.805-2.986 6.9-6.656 6.9H10.478c-3.666 0-6.656-3.095-6.656-6.9V11.608c0-3.804 2.99-6.899 6.656-6.899h30.793c3.67 0 6.656 3.095 6.656 6.9v31.427zM41.27.743H10.478C4.698.743 0 5.616 0 11.608v31.428c0 5.988 4.697 10.861 10.478 10.861h30.793c5.78 0 10.482-4.873 10.482-10.86V11.607c0-5.992-4.702-10.865-10.482-10.865z" fill="#FFF" mask="url(#b)"/></g><path d="M41.52 9.498c-1.352 0-2.436 1.136-2.436 2.529 0 1.401 1.084 2.524 2.436 2.524 1.343 0 2.44-1.123 2.44-2.524 0-1.393-1.097-2.529-2.44-2.529" fill="#FFF"/></g></svg>
